dist/img/content/top-icon-all.svg

<svg xmlns="http://www.w3.org/2000/svg" width="42" height="30" viewBox="0 0 42 30">
  <defs>
    <style>
      .cls-1 {
        fill: #fff;
        fill-rule: evenodd;
      }
    </style>
  </defs>
  <path id="all" class="cls-1" d="M8.665,11.778V10.144H6.774V2.385L5.035,1.97l-0.2,8.173H2.112L1.9,0.44,0.063,0,0,10.3a1.371,1.371,0,0,0,1.281,1.477H4.839v3.693H6.774V11.778H8.665Zm6.791,15.416a3.936,3.936,0,0,1-1.4-.6,2.7,2.7,0,0,1-.9-1.1,4,4,0,0,1-.317-1.686,3.187,3.187,0,0,1,.468-1.823A3.358,3.358,0,0,1,14.5,20.9a4.733,4.733,0,0,1,1.6-.516,12.2,12.2,0,0,1,1.671-.12,10.086,10.086,0,0,1,2.205.189,6.559,6.559,0,0,1,1.169.361v6.261a14.681,14.681,0,0,1-1.621.224q-0.952.086-2.222,0.086A8.255,8.255,0,0,1,15.456,27.194Zm-1.2-16.151a7.9,7.9,0,0,0-1.754.516l0.3,1.961q0.434-.172,1.37-0.447a10.837,10.837,0,0,1,2.84-.275,4.645,4.645,0,0,1,2.155.43,3.283,3.283,0,0,1,1.27,1.135,4.03,4.03,0,0,1,.585,1.582,12.016,12.016,0,0,1,.134,1.806v1.1a2.539,2.539,0,0,0-.485-0.155q-0.351-.085-0.835-0.172t-1-.138q-0.518-.052-0.986-0.052a12.87,12.87,0,0,0-2.907.31,6.637,6.637,0,0,0-2.306.981,4.634,4.634,0,0,0-1.5,1.7,5.322,5.322,0,0,0-.535,2.477,6.085,6.085,0,0,0,.485,2.563,4.6,4.6,0,0,0,1.337,1.72,5.507,5.507,0,0,0,2,.98,9.706,9.706,0,0,0,2.523.31q1.069,0,2.088-.086t1.855-.224q0.835-.137,1.47-0.258a9.509,9.509,0,0,0,.969-0.224V17.373a9.765,9.765,0,0,0-.334-2.614,5.477,5.477,0,0,0-1.069-2.081A4.969,4.969,0,0,0,20,11.3a7.464,7.464,0,0,0-2.89-.5A14.615,14.615,0,0,0,14.253,11.043Zm19.3,16.409a9.623,9.623,0,0,1-1.153-.241,1.658,1.658,0,0,1-1.236-1.221,4.73,4.73,0,0,1-.15-1.324V2.305l-2.172.413V24.734a6.708,6.708,0,0,0,.284,2.116,3.365,3.365,0,0,0,.835,1.376,3.4,3.4,0,0,0,1.37.791,7.169,7.169,0,0,0,1.921.292Zm8.52,0a9.628,9.628,0,0,1-1.153-.241,1.658,1.658,0,0,1-1.236-1.221,4.726,4.726,0,0,1-.15-1.324V2.305l-2.172.413V24.734a6.7,6.7,0,0,0,.284,2.116,3.366,3.366,0,0,0,.835,1.376,3.4,3.4,0,0,0,1.37.791,7.17,7.17,0,0,0,1.921.292Z"/>
</svg>

<?xml version="1.0" encoding="utf-8"?>
<svg width="42" height="30" viewBox="0 0 42 30" xmlns="http://www.w3.org/2000/svg">
  <defs>
    <style>
      .cls-1 {
        fill: #fff;
        fill-rule: evenodd;
      }
    </style>
  </defs>
  <path id="all" class="cls-1" d="M 15.456 27.194 C 14.955 27.087 14.479 26.883 14.056 26.594 C 13.663 26.314 13.352 25.934 13.156 25.494 C 12.93 24.962 12.821 24.386 12.839 23.808 C 12.808 23.167 12.971 22.532 13.307 21.985 C 13.611 21.532 14.02 21.159 14.5 20.9 C 14.998 20.634 15.54 20.459 16.1 20.384 C 16.654 20.306 17.212 20.266 17.771 20.264 C 18.511 20.246 19.25 20.309 19.976 20.453 C 20.376 20.537 20.767 20.658 21.145 20.814 L 21.145 27.075 C 20.609 27.18 20.068 27.255 19.524 27.299 C 18.889 27.356 18.149 27.385 17.302 27.385 C 16.681 27.391 16.062 27.327 15.456 27.194 Z M 14.256 11.043 C 13.653 11.147 13.065 11.32 12.502 11.559 L 12.802 13.52 C 13.091 13.405 13.548 13.256 14.172 13.073 C 15.102 12.857 16.057 12.764 17.012 12.798 C 17.754 12.767 18.493 12.914 19.167 13.228 C 19.683 13.488 20.121 13.88 20.437 14.363 C 20.741 14.843 20.941 15.382 21.022 15.945 C 21.112 16.543 21.157 17.146 21.156 17.751 L 21.156 18.851 C 21 18.783 20.837 18.731 20.671 18.696 C 20.437 18.639 20.159 18.582 19.836 18.524 C 19.513 18.466 19.18 18.42 18.836 18.386 C 18.491 18.351 18.162 18.334 17.85 18.334 C 16.872 18.327 15.897 18.431 14.943 18.644 C 14.119 18.822 13.336 19.155 12.637 19.625 C 12.004 20.059 11.489 20.643 11.137 21.325 C 10.762 22.096 10.578 22.945 10.602 23.802 C 10.576 24.681 10.742 25.556 11.087 26.365 C 11.389 27.037 11.847 27.627 12.424 28.085 C 13.017 28.544 13.698 28.878 14.424 29.065 C 15.248 29.278 16.096 29.383 16.947 29.375 C 17.66 29.375 18.356 29.346 19.035 29.289 C 19.714 29.232 20.333 29.157 20.89 29.065 C 21.447 28.974 21.937 28.888 22.36 28.807 C 22.687 28.749 23.01 28.675 23.329 28.583 L 23.329 17.373 C 23.336 16.491 23.224 15.611 22.995 14.759 C 22.793 13.996 22.428 13.287 21.926 12.678 C 21.404 12.07 20.744 11.597 20 11.3 C 19.079 10.944 18.097 10.774 17.11 10.8 C 16.152 10.787 15.195 10.869 14.253 11.043 L 14.256 11.043 Z M 30.444 27.172 C 30.055 27.115 29.67 27.035 29.291 26.931 C 28.682 26.79 28.204 26.318 28.055 25.71 C 27.943 25.278 27.892 24.832 27.905 24.386 L 27.905 2.025 L 25.733 2.438 L 25.733 24.454 C 25.714 25.17 25.81 25.884 26.017 26.57 C 26.18 27.089 26.466 27.562 26.852 27.946 C 27.24 28.314 27.709 28.585 28.222 28.737 C 28.846 28.921 29.492 29.019 30.143 29.029 L 30.444 27.172 Z M 36.656 26.963 C 36.267 26.906 35.882 26.826 35.503 26.722 C 34.894 26.581 34.416 26.109 34.267 25.501 C 34.155 25.069 34.104 24.623 34.117 24.177 L 34.117 1.816 L 31.945 2.229 L 31.945 24.245 C 31.926 24.961 32.022 25.675 32.229 26.361 C 32.392 26.88 32.678 27.353 33.064 27.737 C 33.452 28.105 33.921 28.376 34.434 28.528 C 35.058 28.712 35.704 28.81 36.355 28.82 L 36.656 26.963 Z"/>
</svg>
